!!!!SEGMENT: pl-kk--kk-i-382--091_czerny-carl--andante-nro-32.krn
!!!cenid: 18xx:1595
!!!COM: Czerny, Carl
!!!COM-rism: pe78470
!!!CDT: 1791/02/21-1857/07/15
!!!CNT: Austrian
!!!OTL: Andante Nro 32
!!!PDT:
!!!AGN:
!!!SMS-siglum: PL-Kk
!!!SMS-shelfmark: Kk.I.382
!!!SMS-variant:
!!!SMS-altvar:
!!!NIFC-rismID: 1001142477
!!!system-decoration: [(s1,s2,s3,s4)]
**kern	**text	**dynam	**kern	**text	**dynam	**kern	**text	**dynam	**kern	**text	**dynam
*part4	*part4	*part4	*part3	*part3	*part3	*part2	*part2	*part2	*part1	*part1	*part1
*staff4	*staff4	*	*staff3	*staff3	*	*staff2	*staff2	*	*staff1	*staff1	*
*I"Basso II	*	*	*I"Tenore II	*	*	*I"Alto vel Basso I	*	*	*I"Soprano vel Tenore I.	*	*
*I'B. II	*	*	*I'T. II	*	*	*I'A.	*	*	*I'S. vel T. I	*	*
*clefF4	*	*	*clefC3	*	*	*clefC4	*	*	*clefC1	*	*
*k[]	*	*	*k[]	*	*	*k[]	*	*	*k[]	*	*
*M2/4	*	*	*M2/4	*	*	*M2/4	*	*	*M2/4	*	*
*>[A,A,B,B,C,C,D,D]	*	*	*>[A,A,B,B,C,C,D,D]	*	*	*>[A,A,B,B,C,C,D,D]	*	*	*>[A,A,B,B,C,C,D,D]	*	*
=1	=1	=1	=1	=1	=1	=1	=1	=1	=1	=1	=1
*>A	*	*	*>A	*	*	*>A	*	*	*>A	*	*
!LO:TX:a:Bi:t=Andante	!	!	!LO:TX:a:Bi:t=Andante	!	!	!LO:TX:a:Bi:t=Andante	!	!	!LO:TX:a:Bi:t=Andante	!	!
!LO:TX:a:Bi:t=Nro 32.:rj	!	!	!LO:TX:a:Bi:t=Nro 32.	!	!	!LO:TX:a:Bi:t=Nro 32.	!	!	!LO:TX:a:Bi:t=Nro 32.	!	!
!LO:TX:t=P:zapis na zdjęciu 0261, czyli w zupełnie innym miejscu niż w pozostałych głosach, powinien być po zdj 274:problem	!	!	!	!	!	!	!	!	!	!	!
!	!	!	!	!	!	!	!	!	!LO:TX:a:i:t=Czerny (?):problem:dopisane ołówkiem po prawej stronie kartki	!	!
!	!	!LO:DY:a:rj	!	!	!LO:DY:a:rj	!	!	!LO:DY:a:rj	!	!	!LO:DY:a:rj
4.c\	Gau-	p	4.e\	Gau-	p	4.c\	Gau-	p	4.g\	Gau-	p
8c\	-de	.	8e\	-de	.	8c\	-de	.	8g\	-de	.
=2	=2	=2	=2	=2	=2	=2	=2	=2	=2	=2	=2
4F\	ma-	.	4a\	Ma-	.	4c\	ma-	.	4cc\	Ma-	.
8A\	-ter	.	8f\	-ter	.	8c\	-ter	.	8a\	-ter	.
8A\	Po-	.	8f\	Po-	.	8c\	Po-	.	8a\	Po-	.
=3	=3	=3	=3	=3	=3	=3	=3	=3	=3	=3	=3
!LO:TX:t=P:w źródle skreślona chorągiewka przy nucie [poprawka skryptora]:problem	!	!	!	!	!	!	!	!	!	!	!
4..c\	-lo-	.	4..f\	-lo-	.	4..c\	-lo-	.	4..a\	-lo-	.
16c\	-ni-	.	16e\	-nia-	.	16c\	-ni-	.	16g\	-ni-	.
=4	=4	=4	=4	=4	=4	=4	=4	=4	=4	=4	=4
4c\	-a	.	4e\	-a	.	4c\	-a	.	4g\	-a	.
4r	.	.	4r	.	.	4r	.	.	4r	.	.
=5	=5	=5	=5	=5	=5	=5	=5	=5	=5	=5	=5
4c\	pro-	.	4e\	pro-	.	4c\	pro-	.	4g\	pro-	.
4C/	-le	.	4g\	-le	.	4c\	-le	.	4ee\	-le	.
=6	=6	=6	=6	=6	=6	=6	=6	=6	=6	=6	=6
8F\	fe-	.	8a\	fe-	.	4A\	fe-	.	8ee\	fe-	.
4F\	-cun-	.	4a\	-cun-	.	.	.	.	4dd\	-cun-	.
.	.	.	.	.	.	8.f\	-cun-	.	.	.	.
8F\	-da	.	8a\	-da	.	.	.	.	8cc\	-da	.
.	.	.	.	.	.	16f\	-da	.	.	.	.
=7	=7	=7	=7	=7	=7	=7	=7	=7	=7	=7	=7
!	!	!	!	!	!	!	!	!	!LO:TX:t=P:problem:druga kropka po nucie wykreślona; poprawki skryptora	!	!
4..G\	no-	.	4.g\	no-	.	4..e\	no-	.	4.cc\	no-	.
!	!	!	!	!	!	!	!	!	!LO:TX:t=P:problem:16 przerobione na 8;poprawki skryptora	!	!
.	.	.	8g\	-bi-	.	.	.	.	8dd\	-bi-	.
16G\	-bi-	.	.	.	.	16f\	-bi-	.	.	.	.
=8	=8	=8	=8	=8	=8	=8	=8	=8	=8	=8	=8
4G\	-li	.	4g\	-li	.	4d\	-li	.	4b\	-li	.
4r	.	.	4r	.	.	4r	.	.	4r	.	.
!!LO:LB:g=original
=9	=9	=9	=9	=9	=9	=9	=9	=9	=9	=9	=9
4.c\	sum-	.	4.e\	sum-	.	4.c\	sum-	.	4.g\	Sum-	.
8c\	-mi	.	8e\	-mi	.	8c\	-mi	.	8g\	-mi	.
=10	=10	=10	=10	=10	=10	=10	=10	=10	=10	=10	=10
4A\	Re-	.	4f#X\	Re-	.	4d\	Re-	.	4cc\	Re-	.
8G\	-gis	.	8g\	-gis	.	8d\	-gis	.	8b\	-gis	.
8G\	ma-	.	8g\	ma-	.	8d\	ma-	.	8b\	ma-	.
=11	=11	=11	=11	=11	=11	=11	=11	=11	=11	=11	=11
4..c\	-gna-	.	4..f#X\	-gna-	.	4..d\	-gna-	.	4..a\	-gna-	.
16c\	-li-	.	16f#\	-li-	.	16d\	-li-	.	16ee\	-li-	.
=12	=12	=12	=12	=12	=12	=12	=12	=12	=12	=12	=12
2B\	-a	.	(>4g\	-a	.	(>4d\	-a	.	2dd\	-a	.
.	.	.	4g#X\)	.	.	4f\)	.	.	.	.	.
=13	=13	=13	=13	=13	=13	=13	=13	=13	=13	=13	=13
4c\	lau-	.	4a\	lau-	.	4e\	lau-	.	4dd\	lau-	.
8c\	-de	.	8a\	-de	.	8e\	-de	.	8cc\	-de	.
8C/	fre-	.	8e\	fre-	.	8c\	fre-	.	8a\	fre-	.
=14	=14	=14	=14	=14	=14	=14	=14	=14	=14	=14	=14
4.D\	-quen-	.	(>4d\	-quen-	.	(>4B\	-quen-	.	(>4gS\	-quen-	.
.	.	.	8f#X\)	.	.	8c\)	.	.	8b\)	.	.
8D\	-ta	.	8f#\	-ta	.	8c\	-ta	.	8a\	-ta	.
=15	=15	=15	=15	=15	=15	=15	=15	=15	=15	=15	=15
4..G\	vi-	.	4.f#X\	vi-	.	4..c\	vi-	.	4..a\	vi-	.
.	.	.	8g\	-gi-	.	.	.	.	.	.	.
16G\	-gi-	.	.	.	.	16B\	-gi-	.	16g\	-gi-	.
=16	=16	=16	=16	=16	=16	=16	=16	=16	=16	=16	=16
4G\	-li	.	4g\	-li	.	4B\	-li	.	4g\	-li	.
!	!	!	!LO:TX:a:t=P:w źródle brak kropek przy znaku repetycji [w tej pięciolinii]:problem	!	!	!	!	!	!	!	!
4r	.	.	4r	.	.	4r	.	.	4r	.	.
!!LO:LB:g=original
=17:|!|:	=17:|!|:	=17:|!|:	=17:|!|:	=17:|!|:	=17:|!|:	=17:|!|:	=17:|!|:	=17:|!|:	=17:|!|:	=17:|!|:	=17:|!|:
*>B	*	*	*>B	*	*	*>B	*	*	*>B	*	*
4F\	cu-	.	4g\	cu-	.	4d\	cu-	.	4b\	cu-	.
8F\	-jus	.	8g\	-jus	.	8d\	-jus	.	8b\	-jus	.
8F\	be-	.	8g\	be-	.	8d\	be-	.	8b\	be-	.
=18	=18	=18	=18	=18	=18	=18	=18	=18	=18	=18	=18
(>4F\	-ni-	.	4.g\	-ni-	.	(>4d\	-ni-	.	(>4b\	-ni-	.
8E\)	.	.	.	.	.	8c\)	.	.	8cc\)	.	.
!	!	!	!	!	!	!LO:TX:a:t=P:W źródle chorągiewka nuty 8B dopisana ołówkiem:problem	!	!	!	!	!
8D\	-gna	.	8g\	-gna	.	8B\	-gna	.	8dd\	-gna	.
=19	=19	=19	=19	=19	=19	=19	=19	=19	=19	=19	=19
(<4C/	gra-	.	(>4g\	gra-	.	(>4c\	gra-	.	4.ee\	gra-	.
8G\)	.	.	8f\)	.	.	8B\)	.	.	.	.	.
8G\	-ti-	.	8f\	-ti-	.	8B\	-ti-	.	8dd\	-ti-	.
=20	=20	=20	=20	=20	=20	=20	=20	=20	=20	=20	=20
(>4A\	-a	.	(>4e\	-a	.	(>4c\	-a	.	(>4.cc\	-a	.
4E\)	.	.	4g#X\)	.	.	4d\)	.	.	.	.	.
.	.	.	.	.	.	.	.	.	8b\)	.	.
=21	=21	=21	=21	=21	=21	=21	=21	=21	=21	=21	=21
!	!	!	!	!	!	!	!	!	!	!	!LO:HP:a
4F\	Sta-	.	4a\	Sta-	.	4c\	Sta-	.	4a\	Sta-	<
4A\	-ni-	.	4a\	-ni-	.	4c#X\	-ni-	.	4ee\	-ni-	[
=22	=22	=22	=22	=22	=22	=22	=22	=22	=22	=22	=22
!	!	!	!	!	!	!	!	!	!	!	!LO:HP:a
4D\	-sla-	.	4a\	-sla-	.	4d\	-sla-	.	4ff\	-sla-	>]
8D\	-i	.	8a\	-i	.	8d\	-i	.	8ff\	-i	.
8D\	Pon-	.	8a\	Pon-	.	8f\	Pon-	.	8dd\	Pon-	.
=23	=23	=23	=23	=23	=23	=23	=23	=23	=23	=23	=23
4..G\	-ti-	.	4..g\	-ti-	.	4..e\	-ti-	.	4..cc\	-ti-	.
16G\	-fi-	.	16g\	-fi-	.	16c\	-fi-	.	16ee\	-fi-	.
=24	=24	=24	=24	=24	=24	=24	=24	=24	=24	=24	=24
4G\	-cis	.	4g\	-cis	.	4B\	-cis	.	4dd\	-cis	.
4r	.	.	4r	.	.	4r	.	.	4r	.	.
!!LO:LB:g=original
=25	=25	=25	=25	=25	=25	=25	=25	=25	=25	=25	=25
!	!	!	!	!	!LO:DY:a:rj	!	!	!LO:DY:a:rj	!	!	!LO:DY:a:rj
4c\	Pas-	.	4g\	pas-	f	4e\	pas-	f	4ee\	pas-	f
4c\	-si-	.	4g\	-si-	.	4e\	-si-	.	4ee\	-si-	.
=26	=26	=26	=26	=26	=26	=26	=26	=26	=26	=26	=26
4B\	-o-	.	4g#X\	-o-	.	4e\	-o-	.	4ee\	-o-	.
8B\	-nis	.	8g#\	-nis	.	8e\	-nis	.	8dd\	-nis	.
8B\	in	.	8g#\	in	.	8e\	in-	.	8dd\	in-	.
=27	=27	=27	=27	=27	=27	=27	=27	=27	=27	=27	=27
4A\	si-	.	4a\	si-	.	(>4e\	-si-	.	4..cc\	-si-	.
4E\	.	.	4g#X\	.	.	4d\)	.	.	.	.	.
!	!	!	!	!	!	!	!	!	!LO:N:vis=8	!	!
.	.	.	.	.	.	.	.	.	16b\	-gni-	.
=28	=28	=28	=28	=28	=28	=28	=28	=28	=28	=28	=28
4F\	-gni-	.	4a\	-gni-	.	4c\	-gni-	.	(>4a\	-a	.
4D\	-a	.	4a\	-a	.	4f\	-a	.	8ee\L	.	.
.	.	.	.	.	.	.	.	.	8dd\J)	.	.
=29	=29	=29	=29	=29	=29	=29	=29	=29	=29	=29	=29
4.G\	si-	.	4.g\	si-	.	4.e\	si-	.	4g\	si-	.
.	.	.	.	.	.	.	.	.	4cc\	-gnis	.
8G\	-gnis	.	8f#X\	-gnis	.	8e-X\	-gnis	.	.	.	.
=30	=30	=30	=30	=30	=30	=30	=30	=30	=30	=30	=30
4G\	ful-	.	4fn\	ful-	.	4d\	ful-	.	(>8cc\L	ful-	.
.	.	.	.	.	.	.	.	.	8b\J)	.	.
8G\	-gent	.	8f\	-gent	.	8d\	-gent	.	8a\	-gent	.
8G\	mi-	.	8f\	mi-	.	8d\	mi-	.	8b\	mi-	.
=31	=31	=31	=31	=31	=31	=31	=31	=31	=31	=31	=31
4..G\	-ri-	.	4..f\	-ri-	.	4..B\	-ri-	.	4..dd\	-ri-	.
16C/	-fi-	.	16e\	-fi-	.	16c\	-fi-	.	16cc\	-fi-	.
=32	=32	=32	=32	=32	=32	=32	=32	=32	=32	=32	=32
4C/	-cis	.	4e\	-cis	.	4c\	-cis	.	4cc\	-cis	.
4r	.	.	4r	.	.	4r	.	.	4r	.	.
!!LO:LB:g=original
=33:|!	=33:|!	=33:|!	=33:|!	=33:|!	=33:|!	=33:|!	=33:|!	=33:|!	=33:|!	=33:|!	=33:|!
*>C	*	*	*>C	*	*	*>C	*	*	*>C	*	*
*M2/4	*	*	*M2/4	*	*	*M2/4	*	*	*M2/4	*	*
!	!	!LO:DY:a:rj	!	!	!LO:DY:a:rj	!	!	!LO:DY:a:rj	!	!	!LO:DY:a:rj
4.c\	Er-	p	4.e\	Er-	p	4.c\	Er-	p	4.g\	Er-	p
8c\	-go	.	8e\	-go	.	8c\	-go	.	8g\	-go	.
=34	=34	=34	=34	=34	=34	=34	=34	=34	=34	=34	=34
4F\	fe-	.	4a\	fe-	.	4c\	fe-	.	4cc\	fe-	.
8A\	-lix	.	8f\	-lix	.	8c\	-lix	.	8a\	-lix	.
8A\	Cra-	.	8f\	Cra-	.	8c\	Cra-	.	8a\	Cra-	.
=35	=35	=35	=35	=35	=35	=35	=35	=35	=35	=35	=35
4..c\	-co-	.	4..f\	-co-	.	4.c\	-co-	.	4..a\	-co-	.
.	.	.	.	.	.	8c\	-vi-	.	.	.	.
16c\	-vi-	.	16e\	-vi-	.	.	.	.	16g\	-vi-	.
=36	=36	=36	=36	=36	=36	=36	=36	=36	=36	=36	=36
4c\	-a	.	4e\	-a	.	4c\	-a	.	4g\	-a	.
4r	.	.	4r	.	.	4r	.	.	4r	.	.
=37	=37	=37	=37	=37	=37	=37	=37	=37	=37	=37	=37
4c\	sa-	.	4e\	sa-	.	4c\	sa-	.	4g\	sa-	.
4C/	-cro-	.	4g\	-cro-	.	4c\	-cro-	.	4ee\	-cro-	.
=38	=38	=38	=38	=38	=38	=38	=38	=38	=38	=38	=38
8F\	-do-	.	8a\	-do-	.	4A\	-do-	.	8ee\	-do-	.
4F\	-ta-	.	4a\	-ta-	.	.	.	.	4dd\	-ta-	.
.	.	.	.	.	.	8.f\	-ta-	.	.	.	.
8F\	-ta	.	8a\	-ta	.	.	.	.	8cc\	-ta	.
.	.	.	.	.	.	16f\	-ta	.	.	.	.
=39	=39	=39	=39	=39	=39	=39	=39	=39	=39	=39	=39
4..G\	cor-	.	4.g\	cor-	.	4..e\	cor-	.	4.cc\	cor-	.
.	.	.	8g\	-po-	.	.	-po-	.	8dd\	-po-	.
!	!	!	!	!	!	!LO:N:vis=8	!	!	!	!	!
16G\	-po-	.	.	.	.	16f\	.	.	.	.	.
=40	=40	=40	=40	=40	=40	=40	=40	=40	=40	=40	=40
4G\	-re	.	4g\	-re	.	4d\	-re	.	4b\	-re	.
4r	.	.	4r	.	.	4r	.	.	4r	.	.
!!LO:LB:g=original
=41	=41	=41	=41	=41	=41	=41	=41	=41	=41	=41	=41
4.c\	De-	.	4.e\	De-	.	4.c\	De-	.	4.g\	De-	.
8c\	-um	.	8e\	-um	.	8c\	-um	.	8g\	-um	.
=42	=42	=42	=42	=42	=42	=42	=42	=42	=42	=42	=42
4A\	qui	.	4f#X\	qui	.	4d\	qui	.	4cc\	qui	.
8G\	fe-	.	8g\	fe-	.	8d\	fe-	.	8b\	fa-	.
8G\	-cit	.	8g\	-cit	.	8d\	-cit	.	8b\	-cit	.
=43	=43	=43	=43	=43	=43	=43	=43	=43	=43	=43	=43
4..c\	o-	.	4.f#X\	o-	.	4.d\	o-	.	4.a\	o-	.
.	.	.	8f#\	-mni-	.	8d\	-mni-	.	8ee\	-mni-	.
16c\	-mni-	.	.	.	.	.	.	.	.	.	.
=44	=44	=44	=44	=44	=44	=44	=44	=44	=44	=44	=44
2B\	-a	.	(>4g\	-a	.	(>4d\	-a	.	2dd\	-a	.
.	.	.	4g#X\)	.	.	4f\)	.	.	.	.	.
=45	=45	=45	=45	=45	=45	=45	=45	=45	=45	=45	=45
4c\	be-	.	4a\	be-	.	4e\	be-	.	4dd\	be-	.
8c\	-ne-	.	8a\	-ne-	.	8e\	-ne-	.	8cc\	-ne-	.
8C/	-dic	.	8e\	-dic	.	8c\	-dic	.	8a\	-dic	.
=46	=46	=46	=46	=46	=46	=46	=46	=46	=46	=46	=46
4.D\	om-	.	(>4d\	o-	.	(>4B\	o-	.	(>4gS\	o-	.
.	.	.	8f#X\)	.	.	8c\)	.	.	8b\)	.	.
8D\	-ni	.	8f#\	-mni	.	8c\	-mni	.	8a\	-mni	.
=47	=47	=47	=47	=47	=47	=47	=47	=47	=47	=47	=47
4..G\	tem-	.	4..f#X\	tem-	.	4.c\	tem-	.	4.a\	tem-	.
.	.	.	.	.	.	8B\	-po-	.	8g\	-po-	.
!	!	!	!LO:N:vis=8	!	!	!	!	!	!	!	!
16G\	-po-	.	16g\	-po-	.	.	.	.	.	.	.
=48	=48	=48	=48	=48	=48	=48	=48	=48	=48	=48	=48
4G\	-re	.	4g\	-re	.	4B\	-re	.	4g\	-re	.
4r	.	.	4r	.	.	4r	.	.	4r	.	.
!!LO:LB:g=original
=49:|!|:	=49:|!|:	=49:|!|:	=49:|!|:	=49:|!|:	=49:|!|:	=49:|!|:	=49:|!|:	=49:|!|:	=49:|!|:	=49:|!|:	=49:|!|:
*>D	*	*	*>D	*	*	*>D	*	*	*>D	*	*
!	!	!	!	!	!LO:DY:a:rj	!	!	!LO:DY:a:rj	!	!	!
4F\	sit	.	4g\	Sit	f	4d\	sit	f	4b\	Sit	.
8F\	Tri-	.	8g\	Tri-	.	8d\	Tri-	.	8b\	Tri-	.
8F\	-ni-	.	8g\	-ni-	.	8d\	-ni-	.	8b\	-ni-	.
=50	=50	=50	=50	=50	=50	=50	=50	=50	=50	=50	=50
(>4F\	-ta-	.	4.g\	-ta-	.	(>4d\	-ta-	.	(>4b\	-ta-	.
8E\)	.	.	.	.	.	8c\)	.	.	8cc\)	.	.
8D\	-ti	.	8g\	-ti	.	8B\	-ti	.	8dd\	-ti	.
=51	=51	=51	=51	=51	=51	=51	=51	=51	=51	=51	=51
(>4C/	glo-	.	(>4g\	glo-	.	(>4c\	glo-	.	4.ee\	glo-	.
8G\)	.	.	8f\)	.	.	8B\)	.	.	.	.	.
8G\	-ri-	.	8f\	-ri-	.	8B\	-ri-	.	8dd\	-ri-	.
=52	=52	=52	=52	=52	=52	=52	=52	=52	=52	=52	=52
(>4A\	-a	.	(>4e\	-a	.	(>4c\	-a	.	(>4.cc\	-a	.
4E\)	.	.	4g#X\)	.	.	4d\)	.	.	.	.	.
.	.	.	.	.	.	.	.	.	8b\)	.	.
=53	=53	=53	=53	=53	=53	=53	=53	=53	=53	=53	=53
!	!	!	!	!	!	!	!	!	!	!	!LO:HP:a
4F\	laus	.	4a\	lau	.	4c\	laus	.	4a\	laus	<
4A\	ho-	.	4a\	ho-	.	4c#X\	ho-	.	4ee\	ho-	[
=54	=54	=54	=54	=54	=54	=54	=54	=54	=54	=54	=54
!	!	!	!	!	!	!	!	!	!	!	!LO:HP:a
4D\	-nor	.	4a\	-nor	.	4d\	-nor	.	4ff\	-nor	>]
8D\	ju-	.	8a\	ju-	.	8d\	ju-	.	8ff\	ju-	.
8D\	-bi-	.	8a\	-bi-	.	8f\	-bi-	.	8dd\	-bi-	.
=55	=55	=55	=55	=55	=55	=55	=55	=55	=55	=55	=55
4..G\	-la-	.	4.g\	-la-	.	4.e\	-la-	.	4..cc\	-la-	.
.	.	.	8g\	-ti-	.	8c\	-ti-	.	.	.	.
16G\	-ti-	.	.	.	.	.	.	.	16ee\	-ti-	.
=56	=56	=56	=56	=56	=56	=56	=56	=56	=56	=56	=56
4G\	-o	.	4g\	-o	.	4B\	-o	.	4dd\	-o	.
4r	.	.	4r	.	.	4r	.	.	4r	.	.
!!LO:LB:g=original
=57	=57	=57	=57	=57	=57	=57	=57	=57	=57	=57	=57
!	!	!	!	!	!LO:DY:a:rj	!	!	!LO:DY:a:rj	!	!	!LO:DY:a:rj
4c\	de	.	4g\	de	f	4e\	de	f	4ee\	de	f
(>4c\	Mar-	.	(>4g\	mar-	.	[>4e\	Mar-	.	[>4ee\	Mar-	.
=58	=58	=58	=58	=58	=58	=58	=58	=58	=58	=58	=58
8B\)	.	.	8g#X\)	.	.	8e\]	.	.	8ee\]	.	.
8B\	-ty-	.	8g#\	-ti-	.	8e\	-ty-	.	8ee\	-ty-	.
8B\	-ris	.	8g#\	-ris	.	8e\	-ris	.	8dd\	-ris	.
8B\	vi-	.	8g#\	vi-	.	8e\	vi-	.	8dd\	vi-	.
=59	=59	=59	=59	=59	=59	=59	=59	=59	=59	=59	=59
(>4A\	-cto-	.	(>4a\	-cto-	.	(>4e\	-cto-	.	4.cc\	-cto-	.
4E\)	.	.	4g#X\)	.	.	4d\)	.	.	.	.	.
.	.	.	.	.	.	.	.	.	8b\	-ri-	.
=60	=60	=60	=60	=60	=60	=60	=60	=60	=60	=60	=60
4F\	-ri-	.	4a\	-ri-	.	4c\	-ri-	.	(>4a\	-a	.
4D\	-a	.	4a\	-a	.	4f\	-a	.	8ee\L	.	.
.	.	.	.	.	.	.	.	.	8dd\J)	.	.
=61	=61	=61	=61	=61	=61	=61	=61	=61	=61	=61	=61
4.G\	sit	.	4.g\	sit	.	4.e\	sit	.	4g\	sit	.
.	.	.	.	.	.	.	.	.	[>4cc\	no-	.
[>8G\	no-	.	(>8f#X\	no-	.	(>8e-X\	no-	.	.	.	.
=62	=62	=62	=62	=62	=62	=62	=62	=62	=62	=62	=62
8G\]	.	.	8fn\)	.	.	8d\)	.	.	8cc\]	.	.
8G\	-bis	.	8f\	-bis	.	8d\	-bis	.	8b\	-bis	.
8G\	e-	.	8f\	e-	.	8d\	e-	.	8a\	e-	.
8G\	-xul-	.	8f\	-xul-	.	8d\	-xul-	.	8b\	-xul-	.
=63	=63	=63	=63	=63	=63	=63	=63	=63	=63	=63	=63
4..G\	-ta-	.	4.f\	-ta-	.	4.B\	-ta-	.	4..dd\	-ta-	.
.	.	.	8e\	-ti-	.	8c\	-ti-	.	.	.	.
16C/	-ti-	.	.	.	.	.	.	.	16cc\	-ti-	.
=64	=64	=64	=64	=64	=64	=64	=64	=64	=64	=64	=64
4C/	-o.	.	4e\	-o.	.	4c\	-o.	.	4cc\	-o.	.
4r	.	.	4r	.	.	4r	.	.	4r	.	.
==:|!	==:|!	==:|!	==:|!	==:|!	==:|!	==:|!	==:|!	==:|!	==:|!	==:|!	==:|!
*-	*-	*-	*-	*-	*-	*-	*-	*-	*-	*-	*-
!!title: @{OTL};
!!!RDF**kern: > = above
!!!RDF**kern: < = below
!!!RDF**dynam: p = "po", fontstyle="bold-italic"
!!!EED: Wojciech Jakubiak-Danek
!!!EST: 2021-03-01
!!!URL-scan: http://repozytorium.nifc.pl/skany/pl-kk-nut--i-382
!!!ONB-nifc: UWAGA: obsada: S/T1, A/B1, T2, B2. Skan 0054, 0126, 0199, 0261
!!!ENC: Mateusz Solarz
!!!END: 2021-02-16
